icons/icn_mapVert.svg

<svg width="24" xmlns="http://www.w3.org/2000/svg" height="24" id="screenshot-701359cf-58fd-8059-8006-76ef39703316" viewBox="0 0 24 24" xmlns:xlink="http://www.w3.org/1999/xlink" fill="none" version="1.1"><g id="shape-701359cf-58fd-8059-8006-76ef39703316"><g class="frame-container-wrapper"><g class="frame-container-blur"><g class="frame-container-shadows"><g fill="none"><g class="fills" id="fills-701359cf-58fd-8059-8006-76ef39703316"><rect rx="0" ry="0" x="0" y="0" width="24" height="24" transform="matrix(1, 0, 0, 1, 0, 0)" class="frame-background"/></g><g class="frame-children"><g id="shape-701359cf-58fd-8059-8006-76ed208abaac" width="24" height="24" version="1.1" rx="0" ry="0" style="fill: rgb(0, 0, 0);"><g id="shape-701359cf-58fd-8059-8006-76ed208d2950" style="opacity: 1;"><g class="fills" id="fills-701359cf-58fd-8059-8006-76ed208d2950"><path d="M5.260832786560059,2.0789496898651123C3.5105886459350586,2.0789496898651123,2.0794363021850586,3.5180366039276123,2.0794363021850586,5.269623279571533L2.0794363021850586,18.738128662109375C2.0794363021850586,20.489837646484375,3.5105886459350586,21.921112060546875,5.260832786560059,21.921112060546875L18.732023239135742,21.921112060546875C20.483243942260742,21.921112060546875,21.921964645385742,20.489837646484375,21.921964645385742,18.738128662109375L21.921964645385742,5.269623279571533C21.921964645385742,3.5180366039276123,20.483243942260742,2.0789496898651123,18.732023239135742,2.0789496898651123ZM5.260832786560059,3.5484321117401123L11.292815208435059,3.5484321117401123C11.266203880310059,3.6191108226776123,11.251311302185059,3.6939399242401123,11.247649192810059,3.7691352367401123L11.247649192810059,20.459320068359375L5.260832786560059,20.459320068359375C4.297698020935059,20.459320068359375,3.5408620834350586,19.702362060546875,3.5408620834350586,18.738128662109375L3.5408620834350586,5.269623279571533C3.5408620834350586,4.305511951446533,4.297698020935059,3.5484321117401123,5.260832786560059,3.5484321117401123ZM12.702727317810059,3.5484321117401123L18.732023239135742,3.5484321117401123C19.695402145385742,3.5484321117401123,20.452970504760742,4.305511951446533,20.452970504760742,5.269623279571533L20.452970504760742,18.738128662109375C20.452970504760742,19.702362060546875,19.695402145385742,20.459320068359375,18.732023239135742,20.459320068359375L12.745207786560059,20.459320068359375L12.745207786560059,3.7691352367401123C12.742522239685059,3.6939399242401123,12.727629661560059,3.6195991039276123,12.702727317810059,3.5484321117401123Z" style="display: inline; stroke-linecap: round; stroke-linejoin: round; fill: rgb(0, 0, 0); fill-opacity: 1;"/></g></g></g></g></g></g></g></g></g></svg>

<svg fill="none" viewBox="0 0 24 24"><g class="frame-container-wrapper"><g class="frame-container-blur"><g class="frame-container-shadows"><g class="fills"><rect width="24" height="24" class="frame-background" rx="0" ry="0"/></g><g class="frame-children"><path fill="#000" d="M5.2608 2.079c-1.7502 0-3.1814 1.439-3.1814 3.1906v13.4685c0 1.7517 1.4312 3.183 3.1814 3.183H18.732c1.7512 0 3.19-1.4313 3.19-3.183V5.2696c0-1.7516-1.4388-3.1907-3.19-3.1907Zm0 1.4694h6.032a.7277.7277 0 0 0-.0452.2207v16.6902H5.2608c-.9631 0-1.72-.757-1.72-1.7212V5.2696c0-.964.7569-1.7212 1.72-1.7212Zm7.442 0h6.0292c.9634 0 1.721.7571 1.721 1.7212v13.4685c0 .9643-.7576 1.7212-1.721 1.7212h-5.9868V3.7691a.75.75 0 0 0-.0425-.2207Z" class="fills"/></g></g></g></g></svg>
